src/img/leaf-temperature.svg

<svg width="16" height="16" viewBox="0 0 16 16" fill="none" xmlns="http://www.w3.org/2000/svg">
<path d="M14.6666 2.27335L14.5866 1.43335L13.7866 1.70002C12.4156 2.17638 10.9515 2.32256 9.51329 2.12668C8.00206 1.89216 6.45524 2.10056 5.05996 2.72668C4.32028 3.04165 3.67113 3.53663 3.17161 4.16656C2.67209 4.79648 2.33807 5.54136 2.19996 6.33335C2.02088 7.35648 2.11047 8.40857 2.45996 9.38668C2.685 8.87874 2.94796 8.38847 3.24663 7.92002C3.92409 6.92324 4.86281 6.13214 5.95996 5.63335C7.01692 5.15077 8.17222 4.92245 9.33329 4.96668C8.22797 5.13568 7.16996 5.53301 6.22662 6.13335C5.77161 6.41925 5.35491 6.76201 4.98663 7.15335C4.6344 7.5445 4.32384 7.97124 4.05996 8.42668C3.56431 9.37869 3.21164 10.3985 3.01329 11.4534C2.7995 12.5116 2.68346 13.5872 2.66663 14.6667H3.99996C4.06262 13.6986 4.19407 12.7361 4.39329 11.7867C5.31825 12.2862 6.35553 12.5409 7.40662 12.5267C8.38694 12.526 9.35717 12.3288 10.26 11.9467C15.3333 9.78002 14.6666 2.57335 14.6666 2.27335Z" fill="white"/>
</svg>

<svg xmlns="http://www.w3.org/2000/svg" width="16" height="16" fill="none"><path fill="#fff" d="m14.667 2.273-.08-.84-.8.267a9.2 9.2 0 0 1-4.274.427 7.9 7.9 0 0 0-4.453.6A4.82 4.82 0 0 0 2.2 6.333a6 6 0 0 0 .26 3.054q.338-.764.787-1.467A6.57 6.57 0 0 1 5.96 5.633a7.44 7.44 0 0 1 3.373-.666 8.05 8.05 0 0 0-3.106 1.166 6.3 6.3 0 0 0-1.24 1.02 7.6 7.6 0 0 0-.927 1.274 11 11 0 0 0-1.047 3.026 17.6 17.6 0 0 0-.346 3.214H4q.095-1.453.393-2.88c.925.5 1.963.754 3.014.74a7.3 7.3 0 0 0 2.853-.58c5.073-2.167 4.407-9.374 4.407-9.674"/></svg>
